!!!COM: Fe/licien David
!!!CNT: Francais
!!!TXO: Francais
!!!OTL: Le Rhin Allemand
!!!LYR: Alfred Musset
!!!ENC: Jacob Pegg
!!!YOR: Romantic French Song 1830-1870, David Tunley, ed., New York: Garland Publishing, Inc., 1995
!!!ODT: 1843/
!!NB: Vocal melody and text only encoded.
!!NB: Only first strophe and refrain encoded.
**kern	**silbe
*clef G2	*
*k[f#c#]	*
*M2/4	*
=1	=1
2r	.
=2	=2
2r	.
=3	=3
2r	.
=4	=4
2r	.
=5	=5
2r	.
=6	=6
2r	.
=7	=7
2r	.
=8	=8
2r	.
=9	=9
{4dd	{Nous
8.dd	l'a-
16dd	-vons
=10	=10
4dd	eu
8.cc#	vo-
16b	-tre
=11	=11
4a	Rhin
8.b	al-
16g#	-le-
=12	=12
2a}	-mand;}
=13	=13
{4gn	{Il
8.a	a
16b	te-
=14	=14
8a	-mu
8a	dans
8.dd	no-
16dd	-tre
=15	=15
(4dd	ver-
4cc#)	|
=16	=16
4dd}	-re:}
4r	.
=17	=17
{4dd	{Un
4cc#	cou-
=18	=18
(4b	-plet
cc#q	|
bq	|
8a#)	qu'on
8b	s'en
=19	=19
4dd	va
4cc#	chan-
=20	=20
2f#}	-tant}
=21	=21
{4f#	{Ef-
8.g#	-fa-
16a#	-ce
=22	=22
8.b	'til
16a#	la
8.b	trace
16cc#	al-
=23	=23
2dd	-tie-
=24	=24
4cc#}	-re}
8.r	.
{16ee	{Du
=25	=25
8.ee	pied
16ee	de
8.dd	nos
16cc#	che-
=26	=26
8b	-vaux
8f#	mar-
8b	-que/
8cc#	dans
=27	=27
(4dd	vo-
8.cc#)	|
16b	-tre
=28	=28
2b}	sang?}
=29	=29
{4ff#	{Nous
8.ff#	l'a-
16ff#	-vons
=30	=30
4ff#	eu
8.ee	vo-
16ff#	-tre
=31	=31
(8.gg	Rhin
16ff#)	|
8.ee	al-
16ff#	-le-
=32	=32
2dd}	-mand,}
=33	=33
{(8.b	{Nous
16cc#)	|
8.dd	l'a-
16ee	-vons
=34	=34
4a	eu
8.dd	vo-
16dd	-tre
=35	=35
4cc#	Rhin
8.dd	al-
16dd	-le-
=36	=36
2ee}	-mand,}
=37	=37
!!At this point the piece breaks into 
!!four voices. Soprano (melody) only encoded.
{4ff#	{Nous
8.ff#	l'a-
16ff#	-vons
=38	=38
4ff#	eu
8.ee	vo-
16ff#	-tre
=39	=39
8.gg	Rhin
16ff#	|
8.ee	al-
16ff#	-le-
=40	=40
2dd}	-mand,}
=41	=41
{8.b	{Nous
16cc#	|
8.dd	l'a-
16ee	-vons
=42	=42
4a	eu
8.dd	vo-
16dd	-tre
=43	=43
4b	Rhin
8.cc#	al-
16cc#	-le-
=44	=44
[2dd	-mand!
=45	=45
2dd;]}	|}
*-	*-
